svg/part/hair_fill.svg

<?xml version="1.0" encoding="UTF-8"?>
<svg width="24px" height="24px" viewBox="0 0 24 24" version="1.1" xmlns="http://www.w3.org/2000/svg" xmlns:xlink="http://www.w3.org/1999/xlink">
    <title>hair_fill</title>
    <g id="页面-1" stroke="none" stroke-width="1" fill="none" fill-rule="evenodd">
        <g id="Part" transform="translate(-336.000000, -48.000000)" fill-rule="nonzero">
            <g id="hair_fill" transform="translate(336.000000, 48.000000)">
                 <path d="M24,0 L24,24 L0,24 L0,0 L24,0 Z M12.5934901,23.257841 L12.5819402,23.2595131 L12.5108777,23.2950439 L12.4918791,23.2987469 L12.4918791,23.2987469 L12.4767152,23.2950439 L12.4056548,23.2595131 C12.3958229,23.2563662 12.3870493,23.2590235 12.3821421,23.2649074 L12.3780323,23.275831 L12.360941,23.7031097 L12.3658947,23.7234994 L12.3769048,23.7357139 L12.4804777,23.8096931 L12.4953491,23.8136134 L12.4953491,23.8136134 L12.5071152,23.8096931 L12.6106902,23.7357139 L12.6232938,23.7196733 L12.6232938,23.7196733 L12.6266527,23.7031097 L12.609561,23.275831 C12.6075724,23.2657013 12.6010112,23.2592993 12.5934901,23.257841 L12.5934901,23.257841 Z M12.8583906,23.1452862 L12.8445485,23.1473072 L12.6598443,23.2396597 L12.6498822,23.2499052 L12.6498822,23.2499052 L12.6471943,23.2611114 L12.6650943,23.6906389 L12.6699349,23.7034178 L12.6699349,23.7034178 L12.678386,23.7104931 L12.8793402,23.8032389 C12.8914285,23.8068999 12.9022333,23.8029875 12.9078286,23.7952264 L12.9118235,23.7811639 L12.8776777,23.1665331 C12.8752882,23.1545897 12.8674102,23.1470016 12.8583906,23.1452862 L12.8583906,23.1452862 Z M12.1430473,23.1473072 C12.1332178,23.1423925 12.1221763,23.1452606 12.1156365,23.1525954 L12.1099173,23.1665331 L12.0757714,23.7811639 C12.0751323,23.7926639 12.0828099,23.8018602 12.0926481,23.8045676 L12.108256,23.8032389 L12.3092106,23.7104931 L12.3186497,23.7024347 L12.3186497,23.7024347 L12.3225043,23.6906389 L12.340401,23.2611114 L12.337245,23.2485176 L12.337245,23.2485176 L12.3277531,23.2396597 L12.1430473,23.1473072 Z" id="MingCute" fill-rule="nonzero"></path>
                <path d="M12,3 C7.02944,3 3,7.02944 3,12 L3,18 C3,19.6569 4.34315,21 6,21 L7.38197,21 C8.13951,21 8.83204,20.572 9.17082,19.8944 L9.34564,19.5448 C9.03131,19.3254 8.72677,19.0709 8.44209,18.7842 C7.34335,17.6778 6.5,16.0546 6.5,14 C6.5,13.265 6.62409,12.5336 6.84885,11.8426 C6.94857,11.536 7.22583,11.5 7.5,11.5 C9.19063,11.5 10.6854,10.6614 11.5912,9.3752 C11.6848,9.24221 11.8373,9.16308 12,9.16309 C12.1626,9.16309 12.3151,9.24221 12.4088,9.37521 C13.3145,10.6614 14.8093,11.5 16.5,11.5 C16.7742,11.5 17.0515,11.536 17.1512,11.8426 C17.3759,12.5337 17.5,13.265 17.5,14 C17.5,16.0546 16.6567,17.6778 15.5579,18.7842 C15.2732,19.0709 14.9687,19.3254 14.6544,19.5448 L14.8292,19.8944 C15.168,20.572 15.8605,21 16.618,21 L18,21 C19.6569,21 21,19.6569 21,18 L21,12 C21,7.02944 16.9706,3 12,3 Z" id="路径" fill="#09244B"></path>
            </g>
        </g>
    </g>
</svg>

<svg xmlns="http://www.w3.org/2000/svg" width="24" height="24"><g fill="none" fill-rule="nonzero"><path d="M24 0v24H0V0h24ZM12.593 23.258l-.011.002-.071.035-.02.004-.014-.004-.071-.035c-.01-.004-.019-.001-.024.005l-.004.01-.017.428.005.02.01.013.104.074.015.004.012-.004.104-.074.012-.016.004-.017-.017-.427c-.002-.01-.009-.017-.017-.018Zm.265-.113-.013.002-.185.093-.01.01-.003.011.018.43.005.012.008.007.201.093c.012.004.023 0 .029-.008l.004-.014-.034-.614c-.003-.012-.01-.02-.02-.022Zm-.715.002a.023.023 0 0 0-.027.006l-.006.014-.034.614c0 .012.007.02.017.024l.015-.002.201-.093.01-.008.004-.011.017-.43-.003-.012-.01-.01-.184-.092Z"/><path fill="#09244B" d="M12 3a9 9 0 0 0-9 9v6a3 3 0 0 0 3 3h1.382a2 2 0 0 0 1.789-1.106l.175-.35a6.6 6.6 0 0 1-.904-.76C7.343 17.678 6.5 16.054 6.5 14c0-.735.124-1.466.349-2.157.1-.307.377-.343.651-.343 1.69 0 3.185-.839 4.091-2.125a.5.5 0 0 1 .818 0A4.993 4.993 0 0 0 16.5 11.5c.274 0 .552.036.651.343A7 7 0 0 1 17.5 14c0 2.055-.843 3.678-1.942 4.784-.285.287-.59.541-.904.76l.175.35A2 2 0 0 0 16.618 21H18a3 3 0 0 0 3-3v-6a9 9 0 0 0-9-9Z"/></g></svg>
